X: 21
T: Prelude in G Minor, Op. 28, No. 22
C: Frederic Chopin
%%abc-version 2.0
%%abcx-abcm2ps-target-version 5.9.1 (29 Sep 2008)
%%abc-creator hum2abc beta
%%abcx-conversion-date 2021/01/25 16:34:28
%%abc-copyright Copyright 2008 by Craig Stuart Sapp
%%abc-edited-by Craig Stuart Sapp
%%gracespace 0 6 6
%%humdrum-veritas 3070599580
%%humdrum-veritas-data 2203043997
%%linebreak <none>
%%barnumbers 0
L: 1/8
M: 6/8
N: Derived from prelude28-22.krn
Q: "Molto agitato" 3/8=100
V: 1 clef=treble
V: 2 clef=treble
V: 3 clef=bass
K: Bb
[V:1] z2z [I:setbarnb 1]| 
[V:2] z2z | 
[V:3] [B,,,B,,] [A,,,3/A,,3/] [G,,,/G,,/] | 
[V:1] z[C2-E2][A,2C2D2]z | 
[V:2] z A, E,D,2z | 
[V:3] [G,,,2G,,2]>-[G,,,2G,,2] [^F,,,^F,,] [A,,,A,,] | 
[V:1] z[E2-^F2][E2G2]z | 
[V:2] z C ^F,G,2z | 
[V:3] [A,,,2A,,2]>-[A,,,2A,,2] [B,,,B,,] [G,,,G,,] | 
[V:1] z[E2-G2][C2E2^F2]z | 
[V:2] z C G,^F,2z | 
[V:3] [B,,,2B,,2]>-[B,,,2B,,2] [A,,,A,,] [C,,C,] | 
[V:1] z[^F2A2][G2B2]z | 
[V:2] z E A,B,2z | 
[V:3] [C,,2C,2]>-[C,,2C,2] [D,,D,] [B,,,B,,] | 
[V:1] z[e2g2][d2^f2]z | 
[V:2] z B G[^F2A2]z | 
[V:3] [^C,2^C2]>-[C,2C2] [D,D] [A,,A,] | 
[V:1] z[_d2=f2][c2=e2]z | 
[V:2] z _A F[=E2G2]z | 
[V:3] [=B,,2=B,2]>-[B,,2B,2] [C,C] [G,,G,] | 
[V:1] z[_d2f2][c2=e2]z | 
[V:2] z _A F[=E2G2]z | 
[V:3] [=B,,2=B,2]>-[B,,2B,2] [C,C] [G,,G,] | 
[V:1] z [E=Ace] zz2z | 
[V:2] x6 | 
[V:3] [G,,G,] [^F,,^F,] [G,,G,] [B,,B,] [A,,A,] z/ .[G,,/G,/] | 
[V:1] z[c2-e2][A2c2d2]z | 
[V:2] z A ED2z | 
[V:3] [G,,2G,2]>-[G,,2G,2] [^F,,^F,] [A,,A,] | 
[V:1] z[e2-^f2][e2g2]z | 
[V:2] z c ^FG2z | 
[V:3] [A,,2A,2]>-[A,,2A,2] [B,,B,] [G,,G,] | 
[V:1] z[e2-g2][c2e2^f2]z | 
[V:2] z c G^F2z | 
[V:3] [B,,2B,2]>-[B,,2B,2] [A,,A,] [C,C] | 
[V:1] z[^f2a2][g2b2]z | 
[V:2] z e AB2z | 
[V:3] [C,2C2]>-[C,2C2] [D,D] [B,,B,] | 
[V:1] z!accent!b2z[g2a2] | 
[V:2] z g B z =e A | 
[V:3] [G,G] [E,E] [D,D]!accent![D,2D2][^C,^C] | 
[V:1] z!accent!_a2z[f2g2] | 
[V:2] z f _A z =d G | 
[V:3] [F,F] [_D,_D] [C,C]!accent![C,2C2][=B,,=B,] | 
[V:1] z[c2e2]z[c2e2] | 
[V:2] z G E z _G E | 
[V:3] [E,E] [C,C] [B,,B,] [A,,A,] [C,C] [_A,,_A,] | 
[V:1] .[E=Gce] .[E_Ace] zz2z | 
[V:2] x6 | 
[V:3] .[G,,G,] .[_G,,_G,] .[F,,F,] .[=E,,=E,] .[_E,,_E,] .[D,,D,] | 
[V:1] z[_d2f2]z[e2=g2] | 
[V:2] z _A F z B G | 
[V:3] [_D,,_D,] [D,_D] [D,D] [D,D] [D,D] [D,D] | 
[V:1] z[e2_a2]z[c2e2] | 
[V:2] z c _A z A E | 
[V:3] [C,C] [B,,B,] [_A,,_A,] [G,,G,] [F,,F,] [E,,E,] | 
[V:1] z[_d2f2]z[e2g2] | 
[V:2] z _A F z B G | 
[V:3] [_D,,_D,] [D,_D] [D,D] [D,D] [D,D] [D,D] | 
[V:1] z[e2_a2]z[e2g2] | 
[V:2] z c _A z c G | 
[V:3] [C,C] [B,,B,] [_A,,_A,] [G,,G,] [F,,F,] [E,,E,] | 
[V:1] z[=d2f2]z[d2^f2] | 
[V:2] z _A F z =A ^F | 
[V:3] [=D,,=D,] [C,C] [C,C] [C,C] [C,C] [C,C] | 
[V:1] z[d2g2]z[A2c2] | 
[V:2] z B G z G C | 
[V:3] [B,,B,] [A,,A,] [G,,G,] [E,,E,] [D,,D,] [C,,C,] | 
[V:1] z[B2d2]z[E2G2] | 
[V:2] z G D z B, G, | 
[V:3] [B,,,2B,,2]z[E,,2E,2]z | 
[V:1] z[G2c2]z !accent![^FB] [CA] | 
[V:2] z E Cx3 | 
[V:3] [A,,,2A,,2]z[D,,2D,2]z | 
[V:1] z[_d2=f2]z[e2g2] | 
[V:2] z _A F z B G | 
[V:3] [_D,,_D,] [D,_D] [D,D] [D,D] [D,D] [D,D] | 
[V:1] z[e2_a2]z[c2e2] | 
[V:2] z c _A z A E | 
[V:3] [C,C] [B,,B,] [_A,,_A,] [G,,G,] [F,,F,] [E,,E,] | 
[V:1] z[_d2f2]z[e2g2] | 
[V:2] z _A F z B G | 
[V:3] [_D,,_D,] [D,_D] [D,D] [D,D] [D,D] [D,D] | 
[V:1] z[e2_a2]z[e2g2] | 
[V:2] z c _A z c G | 
[V:3] [C,C] [B,,B,] [_A,,_A,] [G,,G,] [F,,F,] [E,,E,] | 
[V:1] z[=d2f2]z[d2^f2] | 
[V:2] z _A F z =A ^F | 
[V:3] [=D,,=D,] [C,C] [C,C] [C,C] [C,C] [C,C] | 
[V:1] z[d2g2]z[A2c2] | 
[V:2] z B G z G C | 
[V:3] [B,,B,] [A,,A,] [G,,G,] [E,,E,] [D,,D,] [C,,C,] | 
[V:1] z[B2d2]z[E2G2] | 
[V:2] z G D z B, G, | 
[V:3] [B,,,2B,,2]z[E,,2E,2]z | 
[V:1] z[G2c2]z [^FB] [CA] | 
[V:2] z E Cx3 | 
[V:3] [A,,,2A,,2]z[D,,2D,2]z | 
[V:1] z[B2d2]z[E2G2] | 
[V:2] z G D z B, G, | 
[V:3] [B,,,2B,,2]z[E,,2E,2]z | 
[V:1] zc2z[E2G2] | 
[V:2] z [EG] [C^F] z B, G, | 
[V:3] [A,,,2A,,2]>[B,,,2B,,2] [A,,,A,,] z/ [G,,,/G,,/] | 
[V:1] z[C2-E2][A,2C2D2]z | 
[V:2] z A, E,D,2z | 
[V:3] [G,,,2G,,2]>-[G,,,2G,,2] [^F,,,^F,,] [A,,,A,,] | 
[V:1] z[E2-^F2][E2G2]z | 
[V:2] z C ^F,G,2z | 
[V:3] [A,,,2A,,2]>-[A,,,2A,,2] [B,,,B,,] [G,,,G,,] | 
[V:1] z[E2-^F2][E2G2]z | 
[V:2] z C ^F,G,2z | 
[V:3] [A,,,2A,,2]>-[A,,,2A,,2] [B,,,B,,] [G,,,G,,] | 
[V:1] z[e2-^f2][e2g2]z | 
[V:2] z c ^FG2z | 
[V:3] [A,,,2A,,2]>-[A,,,2A,,2] [B,,,B,,] [G,,,G,,] | 
[V:1] .[g2b2e'2g'2]zz2z | 
[V:2] x6 | 
[V:3] .[^C,,,2^C,,2]zz2z | 
[V:1] [D3G3B3d3][^F,3=C3D3^F3] | 
[V:2] x6 | 
[V:3] [D,,3D,3][D,,3A,,3D,3] | 
[V:1] !arpeggio![G,6B,6D6G6] |]  
[V:2] x6 |]  
[V:3] !arpeggio![G,,6D,6] |]  


